!!!COM: John Williams
!!!OTL: Rose (Basic)
!!!GAW: Star Wars: Episode 8
!!!ODT: 2017
!!!OCL: Frank Lehman
!!!ENC: Claire Arthur
!!!ENC2: John McNamara
**kern	**harte	**harm	**pedal	**cadence
*clefG2	*	*	*	*
*k[b-e-a-d-g-]	*k[b-e-a-d-g-]	*k[b-e-a-d-g-]	*	*
*D-:	*D-:	*D-:	*	*
*M3/4	*M3/4	*M3/4	*	*
*MM124	*MM124	*MM124	*	*
2Gn	.	.	.	.
=1	=1	=1	=1	=1
4.A-	D-	I	Pedal: D-	.
[8d-	.	.	Pedal: D-	.
4d-]	.	.	Pedal: D-	.
=2	=2	=2	=2	=2
2e-	E-/b7	II	Pedal: D-	.
8fL	.	.	Pedal: D-	.
8g-J	.	.	Pedal: D-	.
=3	=3	=3	=3	=3
4.f	D-	I	Pedal: D-	.
[8d-	.	.	Pedal: D-	.
4d-]	.	.	Pedal: D-	.
=4	=4	=4	=4	=4
2e-	E-:min/b7	ii	Pedal: D-	.
8fL	.	.	.	.
8g-J	.	.	.	.
=5	=5	=5	=5	=5
4.f	D-/5	Ic	Pedal: None	.
[8a-	.	.	.	.
4a-]	.	.	.	.
=6	=6	=6	=6	=6
2gn	E-/b7	II7d=-VII7d	.	.
8fL	.	.	.	.
8e-J	.	.	.	.
=7	=7	=7	=7	=7
*F:	*F:	*F:	*	*
2.f	F	I	.	CC
.	.	.	.	//
=8	=8	=8	=8	=8
[2c	.	.	.	.
8cL]	.	.	.	.
8cJ	.	.	.	.
=9||	=9||	=9||	=9||	=9||
*k[b-]	*k[b-]	*k[b-]	*	*
4.c	F	I	Pedal: F	.
[8f	.	.	Pedal: F	.
4f]	.	.	Pedal: F	.
=10	=10	=10	=10	=10
2g	G:min/b7	ii	Pedal: F	.
8aL	.	.	Pedal: F	.
8b-J	.	.	Pedal: F	.
=11	=11	=11	=11	=11
4.a	F	I	Pedal: F	.
[8f	.	.	Pedal: F	.
4f]	.	.	Pedal: F	.
=12	=12	=12	=12	=12
2g	G:min/b7	ii	Pedal: F	.
8aL	.	.	Pedal: F	.
8b-J	.	.	Pedal: F	.
=13	=13	=13	=13	=13
4.a	F	I	Pedal: F	.
[8cc	.	.	Pedal: F	.
4cc]	.	.	Pedal: F	.
=14	=14	=14	=14	=14
2bn	G	II	.	.
8aL	.	.	.	.
8gJ	.	.	.	.
=15	=15	=15	=15	=15
2.ee	C	V	.	.
=16	=16	=16	=16	=16
2.dd	B-	IV	Pedal: None	.
=17||	=17||	=17||	=17||	=17||
*k[f#c#g#d#]	*k[f#c#g#d#]	*k[f#c#g#d#]	*	*
*E:	*E:	*E:	*	*
4r	E	I	.	CC
2ee	.	.	.	||
=	=	=	=	=
*-	*-	*-	*-	*-
